X:23
T:Torn Jacket, The
S:Sean Gavin
R:reel
M:C|
L:1/8
K:D
F3A d2ed | cA2B cde2 | F3A d2ed | cAGE EDD2 |
F3A d2ed | cA2B cde2 | dcde efed | cAGE EDD2 :|
|: FAdf a3f | g3a gfed | cA3 cdef | gfed cAGE 
FAdf a3f | g3a gfef | g2ba gfed | cAGE EDD2 :| 

